X: 1
T:The old wife of the mill dust
M:6/8
L:1/8
Q:80
C:Trad.
S:Jig
K:HP
|: {g}A{d}A{e}A{ag}a2e|
{gf}g2f{g}edB|
{g}A{d}A{e}A{ag}a2e|  !
{gf}g2e{g}dB{d}G|
{g}A{d}A{e}A{ag}a2e|
{gf}g2d{g}efg|  !
agf{gf}g2e|
{Gdc}d2e{g}dB{d}G:| |:
{g}Bcd{gef}e2A|  !
{ag}a2A{gef}e2A|
{g}Bcd{gef}e2A|
{gf}g2e{g}dB{d}G|  !
{g}Bcd{gef}e2A|
{gf}g2d{g}efg|
agf{gf}g2e|  !
{Gdc}d2e{g}dB{d}G:| |:
{gcd}c2A{g}A{d}A{e}A|
{g}c{GdG}e2{ag}a2e|  !
{gcd}c2A{g}A{d}A{e}A|
{gBd}B2e{g}dB{d}G|
{gcd}c2A{g}A{d}A{e}A|  !
{g}c{GdG}e2{gf}g3|
agf{gf}g2e|
{Gdc}d2e{g}dB{d}G:| |:  !
{ag}a2A{gef}e2A|
{ag}a2A{g}ec{d}A|
{ag}a2A{gef}e2A|  !
{gf}g2e{g}dB{d}G|
{ag}a2A{gef}e2A|
{ag}a2A{g}efg|  !
agf{gf}g2e|
{Gdc}d2e{g}dB{d}G:| |:
{g}A{d}A{e}A{g}A{d}A{e}A|  !
{gcd}c2A{g}ec{d}A|
{g}A{d}A{e}A{g}A{d}A{e}A|
{gf}g2e{g}dB{d}G|  !
{g}A{d}A{e}A{g}A{d}A{e}A|
{g}c{GdG}e2{g}efg|
agf{gf}g2e|  !
{Gdc}d2e{g}dB{d}G:| |:
{ag}a2A{g}A{d}A{e}A|
{ag}a2A{g}ec{d}A|  !
{ag}a2A{g}A{d}A{e}A|
{gf}g2e{g}dB{d}G|
{ag}a2A{g}A{d}A{e}A|  !
{g}A{d}A{e}A{gf}g3|
agf{gf}g2e|
{Gdc}d2e{g}dB{d}G:|  !
